X:1
T:Score
%%score 1 2 3
L:1/8
Q:1/4=120
M:4/4
K:C
V:1 bass nm="Part_1"
V:2 treble nm="Part_2"
V:3 bass nm="Part_3"
V:1
"^Psalm 88, 21-22 (Vulgata)""^Choral" F,8 D,8 E,8 (D,8 C,8) (D,8 E,8) (F,8 G,8 A,8)"^Anton Bruckner""^(1824- 1896)" G,8 (A,8 | %1
w: In- ve- ni Da- * vid * ser- * * vum me-|
w: |
 D8 C8 B,8 B,8) (G,8 A,8) G,8 F,4 E,8 | G,8 A,8 (C8 B,8) (A,8 G,8) F,8 G,8 (F,8 E,8) (G,8 A,8) | %3
w: ­- * * * um * o- le- o|san- cto me- * o * un- xi e- * um. *|
w: ||
 (F,8 G,8 A,8 A,8 C8 A,8 G,8) (F,8 G,8 A,8) G,8 G,8 | %4
w: Al- * * * * * * Ie- * * lu- ja.|
w: sine Organo * * * * * * * * * *|
V:2
 [A,DF]8 [A,A,D]8 [G,B,E]8 [B,D]8 [A,C]8 [B,-D]8 [B,E]8 [CF]8 [CG]8 [FA]8 [B,G]8 [CA]8 | %1
 [Ad]8 [Gc]8 [GB]8 [EB]8 [CEG]8 [CFA]8 [CEG]8 [A,DF]4 [G,B,E]8 | %2
 [CEG]8 [CEA]8 [EGc]8 [DGB]8 [CEA]8 [CEG]8 [A,CF]8 [CEG]8 [A,DF]8 [G,B,E]8 [CEG]8 [CEA]8 | x96 | %4
V:3
 D,,8 F,,8 E,,8 [G,,G,]8 [A,,E,]8 [F,,A,]8 [E,,G,]8 [D,,F,]8 [G,,D,]8 [F,,F,]8 x16 | %1
 [F,F,]8 [E,G,]8 [G,D]8 [A,C]8 C8 F,8 C,8 D,4 E,8 | %2
 C,8 A,,8 E,,8 G,,8 A,,8 C,8 F,8 C,8 D,8 E,8 C,8 A,,8 | x96 | %4

